appearance/.icons/Tela-black/scalable/apps/rustrover.svg

<svg width="64" height="64" viewBox="0 0 64 64" fill="none" xmlns="http://www.w3.org/2000/svg">
<path d="M58.9997 31.9981C58.9997 39.1593 56.1549 46.0272 51.0911 51.091C46.0274 56.1547 39.1594 58.9995 31.9982 58.9995C24.8376 58.9985 17.9706 56.1533 12.9077 51.0897C7.84476 46.026 5.00049 39.1586 5.00049 31.9981C5.00149 24.8381 7.8462 17.9717 12.909 12.9089C17.9719 7.84608 24.8383 5.00137 31.9982 5.00037C39.1588 5.00037 46.0261 7.84464 51.0898 12.9076C56.1534 17.9705 58.9987 24.8375 58.9997 31.9981Z" fill="#E88E3C"/>
<path d="M41.9988 17.0006H22.0009C19.2392 17.0006 17.0005 19.2394 17.0005 22.001V41.9989C17.0005 44.7606 19.2392 46.9993 22.0009 46.9993H41.9988C44.7604 46.9993 46.9992 44.7606 46.9992 41.9989V22.001C46.9992 19.2394 44.7604 17.0006 41.9988 17.0006Z" fill="#303030"/>
<path d="M26.198 20.2624C28.5452 20.2624 30.8923 22.088 30.8923 24.3709C30.8923 26.1284 29.7887 27.198 28.3033 28.0371L30.8923 33.1736H28.5452L26.198 28.4793H23.8509V33.1736H21.5V20.2587L26.198 20.2624ZM26.198 26.1322C28.0274 26.1322 28.5452 25.2931 28.5792 24.3709C28.5452 23.5507 28.0576 22.6096 26.198 22.6096H23.8509V26.1284L26.198 26.1322ZM19.0869 41.3904H30.8264V43.7376H19.0869V41.3904Z" fill="#F0F0F0"/>
<path fill-rule="evenodd" clip-rule="evenodd" d="M37.9395 20.2624C40.2866 20.2624 42.6337 22.088 42.6337 24.3709C42.6337 26.1284 41.5301 27.198 40.0447 28.0371L42.6337 33.1736H40.2866L37.9395 28.4793H35.5923V33.1736H33.2414V20.2587L37.9395 20.2624ZM40.3206 24.3709C40.2866 25.2931 39.7688 26.1322 37.9395 26.1322L35.5923 26.1284V22.6096H37.9395C39.799 22.6096 40.2866 23.5507 40.3206 24.3709Z" fill="#F0F0F0"/>
</svg>

<svg xmlns="http://www.w3.org/2000/svg" width="64" height="64" fill="none"><path fill="#E88E3C" d="M59 31.998A27 27 0 0 1 31.998 59 27 27 0 0 1 5 32 27 27 0 0 1 31.998 5 27 27 0 0 1 59 31.998"/><path fill="#303030" d="M41.999 17H22a5 5 0 0 0-5 5.001v19.998a5 5 0 0 0 5 5h19.998a5 5 0 0 0 5-5V22a5 5 0 0 0-5-5"/><path fill="#F0F0F0" d="M26.198 20.262c2.347 0 4.694 1.826 4.694 4.109 0 1.757-1.103 2.827-2.589 3.666l2.59 5.137h-2.348l-2.347-4.695h-2.347v4.695H21.5V20.259zm0 5.87c1.83 0 2.347-.839 2.381-1.761-.034-.82-.521-1.761-2.381-1.761h-2.347v3.518zM19.087 41.39h11.74v2.348h-11.74z"/><path fill="#F0F0F0" fill-rule="evenodd" d="M37.94 20.262c2.347 0 4.694 1.826 4.694 4.109 0 1.757-1.104 2.827-2.59 3.666l2.59 5.137h-2.347l-2.347-4.695h-2.348v4.695h-2.35V20.259zm2.38 4.109c-.033.922-.551 1.761-2.38 1.761l-2.348-.004V22.61h2.348c1.859 0 2.347.94 2.38 1.76" clip-rule="evenodd"/></svg>
